X: 1
T: The Maple Leaf
R: reel
M: 4/4
L: 1/8
K: Edor
|:E (3EEE F GE (3EEE|B2AB AGED|EDEF GFGA|B2dB AGED|
E (3EEE F GE (3EEE|B2AB AGED|Beed BA (3AAA|B2AB AGED:|
|:Beed efg2|Beed edBA|Beed efge|a2eg fedA|
Beed efg2|Beed edB2|a2eg fedA|B2AB AGED:|


Tune 1050	Setting 21229

